!!!COM: Charles Gounod
!!!CNT: Francais
!!!TXO: Francais
!!!OTL: "Primavera"
!!!LYR: Gautier
!!!OPR: 
!!!OPS: Op. 
!!!ONM: No.
!!!ENC: Emily Thomas
!!!YOR: CD Sheet Music French Art Songs, The Ultimate Collection
!!!YOR: CD Sheet Music, LLC 2003
!!!ODT: 1867/
!!NB: Vocal melody and text encoded.
**kern	**silbe
=0	=0
*clefG2	*
*k[b-]	*
*M4/4	*
*MM[Allegretto anime/.]	*
1r	.
=2	=2
1r	.
=3	=3
1r	.
=4	=4
2r	.
{4a	{Tan-
4a	-dis
=5	=5
4a	qu'a\
4a	leurs
4dd	oeu-
8cc	-vres
8dd	per-
=6	=6
4cc	-ver-
8b-}	-ses}
8r	.
{4b-	{Les
8b-	hom-
8b-	-mes
=7	=7
4b-	cour-
8b-}	-ent,}
8r	.
{8ee	{cour-
8cc	-ent
8dd	ha-
8ee	-le-
=8	=8
[4cc	-tants,
8cc]}	|}
8r	.
{4.ff	{Mars
8dd	qui
=9	=9
4ee}	rit,}
8r	.
{8cc	{mal-
4ff	-gre/
8dd	les
8ff	a-
=10	=10
4ee	-ver-
8cc}	-ses,}
8r	.
{4.gg	{Mars
8g	pre/-
=11	=11
4a	-pare
8dd	en
8ff	se-
4ee	-cret
8dd	le
8ee	prin-
=12	=12
[4cc	-temps!
8cc]}	|}
8r	.
{4cc	{Pour
8dd	les
8ee	pe-
=13	=13
4ff	-ti-
4cc	-tes
4.dd	pa-
8dd	-que-
=14	=14
4ee	-ret-
8bn}	-tes,}
8r	.
{4cc	{Sour-
8a	-noi-
8cc	-se-
=15	=15
[4ee	-ment
8ee]}	|}
8r	.
{4cc	{lors-
8a	-que
8cc	tout
=16	=16
2ee}	dort,}
{4ff	{Il
4ee	re-
=17	=17
4cc	-pas-
4cc	-se
4ff	des
8ee	col-
8ee	-le-
=18	=18
4cc	-ret-
8cc}	-tes}
8r	.
{8a	{Et
8cc	ci-
[4ff	-se\-
=19	=19
8ff]	|
8a	|
[4cc	le
8cc]	|
8f	des
8g	bou-
8a	-tons
=20	=20
[4f	d'or!
8f]}	|}
8r	.
2r	.
=21	=21
1r	.
=22	=22
1r	.
=23	=23
1r	.
=24	=24
2r	.
{4a	{La
4a	na-
=25	=25
4a	-ture
4a	au
4dd	lit
8cc	se
8dd	re-
=26	=26
4cc	-po-
8b-}	-se}
8r	.
{4.b-	{Lui
8b-	des-
=27	=27
4b-	-cend
8b-	au
8b-	jar-
4.ee	-din
8dd	de/-
=28	=28
4cc}	-sert}
8r	.
{8cc	{Et
4.ff	la-
8dd	|
=29	=29
4ee	-ce
8cc	les
8g	bou-
4.ff	-tons
8dd	de
=30	=30
4ee	ro-
8ee}	-se}
8r	.
{4gg	{Dans
8ee	leur
8cc	cor-
=31	=31
4a	-set
2dd	de
8dd	ve-
8ee	-lours
=32	=32
[4cc	vert!
8cc]}	|}
8r	.
{4cc	{Sur
8dd	le
8ee	cres-
=33	=33
4ff	-son
4cc	de
4.dd	la
8dd	fon-
=34	=34
4ee	-tai-
8bn}	-ne}
8r	.
{4cc	{Ou\
8a	boit
8cc	le
=35	=35
[4ee	cerf,
8ee]}	|}
8r	.
{4cc	{l'o-
8a	-reille
8cc	au
=36	=36
2ee}	guet,}
{4ff	{De
4ee	sa
=37	=37
4.cc	main
8cc	ca-
4ff	-che/e
8ee	il
8ee	e/-
=38	=38
4cc	-gre\-
8cc}	-ne}
8r	.
{8a	{Les
8cc	gre-
[4ff	-lots
=39	=39
8ff]	|
8a	d'ar-
2cc	-gent
8g	du
8a	mu-
=40	=40
[4f	-guet!
8f]}	|}
8r	.
2r	.
=41	=41
1r	.
=42	=42
1r	.
=43	=43
1r	.
=44	=44
4r	.
8r	.
{8a	{Sous
4a	l'her-
4a}	-be,}
=45	=45
4r	.
{8a	{pour
8a	que
4.dd	tu
8cc	la
=46	=46
4cc	cueil-
8b-}	-les,}
8r	.
{4b-	{Il
8b-	met
8b-	la
=47	=47
4b-	fraise
4b-	au
4.ee	tient
8dd	ver-
=48	=48
[4cc	-meil,
8cc]}	|}
8r	.
{4.ff	{Et
8dd	te
=49	=49
4ee	tresse
8cc	un
8g	cha-
4.ff	-peau
8dd	de
=50	=50
4ee	feuil-
8cc}	-les,}
8r	.
{4gg	{Pour
4g	te
=51	=51
8a	gar-
8dd	-an-
2dd	-tir
8dd	du
8ee	so-
=52	=52
[4cc	-leil!
8cc]}	|}
8r	.
{4cc	{Puis
8dd	lors-
8ee	-que
=53	=53
4ff	sa
4cc	be-
4.dd	-sogne
8dd	est
=54	=54
4ee	fai-
8bn}	-te,}
8r	.
{4cc	{Et
8a	que
8cc	son
=55	=55
4ee	re\-
8bn}	-gne}
8r	.
{4.cc	{va
8a	fi-
=56	=56
2ee}	-nir,}
{4ff	{Au
8ee	seuil
8ee	d'A-
=57	=57
2cc	-vril
4ff	tour-
8ee	-nant
8ee	la
=58	=58
4cc	te^-
8cc}	-te,}
8r	.
8r	.
{8cc	{Il
4ff}	dit:}
=59	=59
8r	.
{8a	{Prin-
[4cc	-temps,
8cc]	|
8g	tu
8.b-	peux
16a	ve-
=60	=60
[4f	-nir!
8f]}	|}
8r	.
2r	.
==	==
*-	*-
